flaticon/emoticons/silent.svg

<svg xmlns="http://www.w3.org/2000/svg" width="32" height="32" viewBox="0 0 24 24">
    <path d="M 8.726562 8.726562 C 8.726562 9.632812 7.996094 10.363281 7.089844 10.363281 C 6.1875 10.363281 5.453125 9.632812 5.453125 8.726562 C 5.453125 7.824219 6.1875 7.089844 7.089844 7.089844 C 7.996094 7.089844 8.726562 7.824219 8.726562 8.726562 Z M 8.726562 8.726562"/>
    <path d="M7.089844 4.910156C4.984375 4.910156 3.273438 6.621094 3.273438 8.726562 3.273438 10.832031 4.984375 12.546875 7.089844 12.546875 9.195312 12.546875 10.910156 10.832031 10.910156 8.726562 10.910156 6.621094 9.195312 4.910156 7.089844 4.910156zM7.089844 11.453125C5.585938 11.453125 4.363281 10.230469 4.363281 8.726562 4.363281 7.222656 5.585938 6 7.089844 6 8.59375 6 9.816406 7.222656 9.816406 8.726562 9.816406 10.230469 8.59375 11.453125 7.089844 11.453125zM18.546875 8.726562C18.546875 9.632812 17.8125 10.363281 16.910156 10.363281 16.003906 10.363281 15.273438 9.632812 15.273438 8.726562 15.273438 7.824219 16.003906 7.089844 16.910156 7.089844 17.8125 7.089844 18.546875 7.824219 18.546875 8.726562zM18.546875 8.726562"/>
    <path d="M 16.910156 4.910156 C 14.804688 4.910156 13.089844 6.621094 13.089844 8.726562 C 13.089844 10.832031 14.804688 12.546875 16.910156 12.546875 C 19.015625 12.546875 20.726562 10.832031 20.726562 8.726562 C 20.726562 6.621094 19.015625 4.910156 16.910156 4.910156 Z M 16.910156 11.453125 C 15.40625 11.453125 14.183594 10.230469 14.183594 8.726562 C 14.183594 7.222656 15.40625 6 16.910156 6 C 18.414062 6 19.636719 7.222656 19.636719 8.726562 C 19.636719 10.230469 18.414062 11.453125 16.910156 11.453125 Z M 16.910156 11.453125"/>
    <path d="M 12 0 C 5.382812 0 0 5.382812 0 12 C 0 18.617188 5.382812 24 12 24 C 18.617188 24 24 18.617188 24 12 C 24 5.382812 18.617188 0 12 0 Z M 12 22.910156 C 5.984375 22.910156 1.089844 18.015625 1.089844 12 C 1.089844 5.984375 5.984375 1.089844 12 1.089844 C 18.015625 1.089844 22.910156 5.984375 22.910156 12 C 22.910156 18.015625 18.015625 22.910156 12 22.910156 Z M 12 22.910156"/>
</svg>

<svg xmlns="http://www.w3.org/2000/svg" width="32" height="32" viewBox="0 0 24 24">
    <path d="M8.727 8.727a1.636 1.636 0 1 1-3.274 0 1.636 1.636 0 0 1 3.274 0zm0 0"/>
    <path d="M7.09 4.91a3.82 3.82 0 0 0-3.817 3.817c0 2.105 1.711 3.82 3.817 3.82a3.826 3.826 0 0 0 3.82-3.82A3.823 3.823 0 0 0 7.09 4.91zm0 6.543a2.729 2.729 0 0 1-2.727-2.726A2.729 2.729 0 0 1 7.09 6a2.729 2.729 0 0 1 2.726 2.727 2.729 2.729 0 0 1-2.726 2.726zm0 0M18.547 8.727a1.636 1.636 0 1 1-3.273 0 1.636 1.636 0 0 1 3.273 0zm0 0"/>
    <path d="M16.91 4.91a3.823 3.823 0 0 0-3.82 3.817 3.826 3.826 0 0 0 3.82 3.82 3.823 3.823 0 0 0 3.817-3.82A3.82 3.82 0 0 0 16.91 4.91zm0 6.543a2.729 2.729 0 0 1-2.726-2.726A2.729 2.729 0 0 1 16.91 6a2.729 2.729 0 0 1 2.727 2.727 2.729 2.729 0 0 1-2.727 2.726zm0 0"/>
    <path d="M12 0C5.383 0 0 5.383 0 12s5.383 12 12 12 12-5.383 12-12S18.617 0 12 0zm0 22.91C5.984 22.91 1.09 18.016 1.09 12S5.984 1.09 12 1.09 22.91 5.984 22.91 12 18.016 22.91 12 22.91zm0 0"/>
</svg>
